X:83
T:Caledonian Laddie,The. JJo.083
S:J.Jones MS,1801,N.Shrops.
A:N Shropshire
Z:Neil Brookes 2006
M:4/4
L:1/8
Q:1/2=60
K:Em
F|E/4F/4G3/ [GB,][GB,] G>FE>G|B>e B>G F/F/F F>>G|\
E/4F/4G3/ G>G G>FE>G|B>c B/c/ e>c B>G G::!
a|g>bf>g e>gc>e|B>G e>c B.GF>a|g>bf>g e>gc>e|B>G e>c B>G Gb|!
g>b f>g e>gc>e|B>G e>c B>G F>G|E/4F/4G3/ [GB,][GB,] G>FE>G|B>c B/c/ e>c B>G G:|

